32x32/actions/help-whatsthis.svg

<svg viewBox="0 0 32 32" xmlns="http://www.w3.org/2000/svg"><path d="m16 4a12 12 0 0 0 -12 12 12 12 0 0 0 12 12 12 12 0 0 0 2-.182v-1.007a11 11 0 0 1 -2 .189 11 11 0 0 1 -11-11 11 11 0 0 1 11-11 11 11 0 0 1 11 11 11 11 0 0 1 -.773 4h1.082a12 12 0 0 0 .691-4 12 12 0 0 0 -12-12zm-1 5v2h2v-2zm0 4v10h2v-10zm4 3 .008 12 3.592-4.924h5.4z" fill="#555e70"/></svg>

<svg xmlns="http://www.w3.org/2000/svg" viewBox="0 0 32 32"><path style="fill:currentColor;fill-opacity:1;stroke:none;color:#555e70" d="M16 4A12 12 0 0 0 4 16a12 12 0 0 0 12 12 12 12 0 0 0 2-.182v-1.007A11 11 0 0 1 16 27 11 11 0 0 1 5 16 11 11 0 0 1 16 5a11 11 0 0 1 11 11 11 11 0 0 1-.773 4h1.082A12 12 0 0 0 28 16 12 12 0 0 0 16 4zm-1 5v2h2V9h-2zm0 4v10h2V13h-2zm4 3 .008 12 3.592-4.924H28L19 16z"/></svg>
